X:190
T: Et wolt sech e Bauer seng Duechter bestueden (3-31), S. 78
N: K1165
O: Luxemburg
S: KINTZELE, Guillaume: An der Ucht, Bd. 3 Luxemburg 1928]
R: Heirat, Mitgift]
M: 3/8
L: 1/16
K: F
C2 | F2F2A2 | d2c2A2 | B2G2G2 | A2A2
F2 | F4A2 | c4A2 | B4G2 | A4
C2 | F4FA | c3cc2 | F4
FF | A2A2GG | F4
C2 | F4FA | c3cc2 | F4

@@@ Tune index: 8244
